X:1
T:The LORD Is King, Enthroned
T:Text: Psalm 93; vers. Psalter, 1912, alt. Tune: George F. Root, 1859
T:SM RIALTO www.hymnary.org/text/the_lord_is_king_enthroned_in_majesty_mo
T:The LORD Is King, Enthroned
T:This hymn is in the public domain. You may freely use this score for personal and congregational worship. If you reproduce the score, please credit Hymnary.org as the source. 
T:This hymn is in the public domain. You may freely use this score for personal and congregational worship. If you reproduce the score, please credit Hymnary.org as the source. 
Z:This hymn is in the public domain. You may freely use this score for personal and congregational worship. If you reproduce the score, please credit Hymnary.org as the source.
%%score ( 1 2 ) ( 3 4 )
L:1/8
M:3/4
K:C
V:1 treble nm="SOPRANO ALTO" snm="S. A."
V:2 treble 
V:3 bass nm="TENOR BASS" snm="T. B."
V:4 bass 
V:1
"^1""^2""^3""^4" C E F | G4 G2 | G3 G AB | c4 c2 | c3 |1 c c d | e3 A AB | c3 E EF | G4 G2 | %9
w: The LORD is|King, en-|throned in maj- es-|ty most|bright,|ap- par- eled|in om- nip- o-|tence, and gird- ed|round with|
w: The world es-|tab- lished|stands on its foun-|da- tions|broad;|your throne is|fixed, you reign su-|preme, the ev- er-|last- ing|
w: The seas have|lift- ed|up their voice in|maj- es-|ty,|but God on|high, su- preme in|might, is great- er|than the|
w: Your tes- ti-|mon- ies,|LORD in faith- ful-|ness ex-|cel,|and ho- ly|must your ser- vants|be who in your|tem- ple|
 G3 x3 |] %10
w: might.|
w: God.|
w: sea.|
w: dwell.|
V:2
 C E F | G4 D2 | E3 G AB | c4 F2 | E3 |1 E E G | G3 F FF | G3 C CC | (E2 D2) F2 | E3 x3 |] %10
V:3
 C, E, F, | G,4 B,2 | C3 G, A,B, | C4 A,2 | G,3 |1 A, A, B, | C3 C CC | C3 C CC | (C2 B,2) D2 | %9
 C3 x3 |] %10
V:4
 C, E, F, | G,4 G,,2 | C,3 G, A,B, | C4 F,2 | C,3 |1 A, A, G, | C,3 F, F,D, | E,3 A, A,A, | %8
 G,4 G,,2 | C,3 x3 |] %10

